X: 82
T: Roslyn Castle  v.1
P: piffero primo a0487
O: McGibbon's Scots Tunes, 1762
%R: march
F: http://ancients.sudburymuster.org/mus/ssp/pdf/garfieldF.pdf
Z: 2019 John Chambers <jc:trillian.mit.edu>
M: 4/4
L: 1/8
K: Em
G>F \
| E2B>c B2AB | cBAG F2G>F \
| E2ef g2fe | ^d>efd B2AB \
| cBAG F2GA | BGFE ^d2ef |
| gef^d eBAB | G2F>E E2 :: B2 \
| e2ef g2fe | baga f2e^d \
| e2ef g2fe |
| baga f2AB \
| cBAG F2GA | BGFE ^d2ef \
| gef^d eBAB | G2F>E E2 :|


